X: 244
T: Song Concerning a Message from Washington
C: Teton Sioux band 1911-1914
N: Derived from sioux239.krn
O: South Dakota, U.S.A.
N: Teton Sioux Music by Frances Densmore, 1918
Z: transcribed to **kern format by Craig Sapp
L: 1/8
M: 3/4
Q: 1/4=58
K: G clef=bass
%%linebreak <none>
E, G G G G/< E/ E [I:setbarnb 2]| 
E E E E E E ||  
[M:2/4]B, B,B,2 | 
B, E E E | 
F< E (E/ B,/) B, ||  
[M:3/4]A, A, G, G, E, G, | 
A,< G, G,< E, E, E, | 
E,6 ||  
[M:2/4]E, E E E | 
F< E (E/< B,/) B, ||  
[M:3/4]A, A, G, G,E,2 ||  
[M:2/4]A, A, G, A,// G,3// | 
G, E, E, E, | 
E,4- | 
E,4 |]  



